svg/alert_outline.svg

<?xml version="1.0" encoding="UTF-8" standalone="no"?>
<!-- Created with Inkscape (http://www.inkscape.org/) -->
<svg id="svg8" xmlns:rdf="http://www.w3.org/1999/02/22-rdf-syntax-ns#" xmlns="http://www.w3.org/2000/svg" xmlns:osb="http://www.openswatchbook.org/uri/2009/osb" height="48" width="48" version="1.1" xmlns:cc="http://creativecommons.org/ns#" viewBox="0 0 12.7 12.7" xmlns:dc="http://purl.org/dc/elements/1.1/">
 <title id="title4753">UIO-icon</title>
 <metadata id="metadata5">
  <rdf:RDF>
   <cc:Work rdf:about="">
    <dc:format>image/svg+xml</dc:format>
    <dc:type rdf:resource="http://purl.org/dc/dcmitype/StillImage"/>
    <dc:title>UIO-icon</dc:title>
    <dc:creator>
     <cc:Agent>
      <dc:title>Joaquín Urbano</dc:title>
     </cc:Agent>
    </dc:creator>
    <dc:rights>
     <cc:Agent>
      <dc:title>GPL</dc:title>
     </cc:Agent>
    </dc:rights>
   </cc:Work>
  </rdf:RDF>
 </metadata>
 <g id="layer1" transform="translate(0,-284.3)" fill="#333">
  <path id="path879" d="m22.439 12.832 0.19727 15.91h2.543l0.21289-15.91zm0.52539 0.50781h1.9062l-0.19922 14.889-1.5273 0.003906zm1.0273 18.631c-0.54812 0-0.96384 0.158-1.248 0.47266-0.27406 0.30451-0.41211 0.68386-0.41211 1.1406 0 0.45677 0.13805 0.83807 0.41211 1.1426 0.28421 0.29436 0.69993 0.44141 1.248 0.44141 0.54812 0 0.96384-0.14705 1.248-0.44141 0.28421-0.30451 0.42773-0.68581 0.42773-1.1426 0-0.45677-0.14352-0.83611-0.42773-1.1406-0.28421-0.31466-0.69993-0.47266-1.248-0.47266zm-0.17188 0.51367h0.32031c0.33388 0.021884 0.97783 0.18211 1 0.98828v0.32031c-0.11179 0.70969-0.52189 0.79377-0.93945 0.86133h-0.32031c-0.65086-0.019087-0.95925-0.34988-1.0332-0.89453v-0.32031c0.069072-0.59246 0.34207-0.96574 0.97266-0.95508z" transform="matrix(.26458 0 0 .26458 0 284.3)"/>
 </g>
</svg>

<svg width="48" height="48" viewBox="0 0 48 48" fill="none" xmlns="http://www.w3.org/2000/svg">
<path d="M22.4387 12.832L22.636 28.7418H25.179L25.3918 12.832H22.4387ZM22.9641 13.3398H24.8703L24.6711 28.2286L23.1438 28.2326L22.9641 13.3398ZM23.9914 31.9706C23.4433 31.9706 23.0276 32.1286 22.7434 32.4433C22.4693 32.7478 22.3313 33.1271 22.3313 33.5838C22.3313 34.0406 22.4693 34.4219 22.7434 34.7264C23.0276 35.0208 23.4433 35.1678 23.9914 35.1678C24.5395 35.1678 24.9552 35.0208 25.2394 34.7264C25.5236 34.4219 25.6671 34.0406 25.6671 33.5838C25.6671 33.1271 25.5236 32.7477 25.2394 32.4433C24.9552 32.1286 24.5395 31.9706 23.9914 31.9706ZM23.8195 32.4843H24.1398C24.4737 32.5062 25.1176 32.6664 25.1398 33.4725V33.7928C25.028 34.5025 24.6179 34.5866 24.2004 34.6542H23.8801C23.2292 34.6351 22.9208 34.3043 22.8469 33.7596V33.4393C22.9159 32.8469 23.1889 32.4736 23.8195 32.4843Z" fill="#333333"/>
</svg>
